!!!COM: Gabriel Faure/
!!!CNT: Francais
!!!TXO: Francais
!!!OTL: "J'ai presque peur, en ve/rite/"
!!!LYR: Verlaine
!!!OPR: La bonne chanson
!!!OPS: Op. 61
!!!ONM: No. 5
!!!ENC: Emily Thomas
!!!YOR: CD Sheet Music French Art Songs, The Ultimate Collection
!!!YOR: CD Sheet Music, LLC 2003
!!!ODT: 1894/
!!NB: Vocal melody and text encoded.
**kern	**silbe
=1	=1
*clefG2	*
*k[f#]	*
*M4/4	*
*MM[Allegro molto]	*
1r	.
=2	=2
2r	.
4r	.
{4ee	{J'ai
=3	=3
8dd	pres-
8dd	-que
[4b	peur,
8b]	|
8b	en
8g	ve/-
8g	-ri-
=4	=4
2.a}	-te/}
{8b	{Tant
8b	je
=5	=5
4.ffn	sens
8dd	ma
4cc	vie
8a-	en-
8a-	-le-
=6	=6
2fn	-ce/-
2e	-e
=7	=7
8d#	a\
8d#	la
8f#	ra-
8f#	-di-
4g	-eu-
8b	-se
8b	pen-
=8	=8
2ee	-se/-
4dd#	-e
4cc#	qui
=9	=9
8b	m'a
8b	pris
[4g	l'a^-
8g]	|
8g	-me
8a	l'autre
8a	e/-
=10	=10
[2b	-te/;
4b]}	|}
4r	.
=11	=11
1r	.
=12	=12
4r	.
{4a	{Tant
4cc	votre
4ff#	i-
=13	=13
2ee	-mage
8cc	a\
8cc	ja-
4dd	-mais
=14	=14
2cc	che\-
8a}	-re}
8r	.
{4cc	{ha-
=15	=15
4b	-bite
8g	en
8g	ce
4a	coeur
8cc	tout
8cc	a\
=16	=16
[2ffn	vous
4ffn]}	|}
{4fn	{Ce
=17	=17
4.e	coeur
8c	u-
4e	-ni-
4g	-que-
=18	=18
8f#	-ment
8e	ja-
2f#	-loux
4d	de
=19	=19
4.e	vous
8e	ai-
[2ee	-mer
=20	=20
4ee]	|
4ee	et
4dd#	de
4cc#	vous
=21	=21
2dd#	plai-
[2g#	-re
=22	=22
4g#]}	|}
4r	.
2r	.
=23	=23
2r	.
4r	.
{8b	{Et
8b	je
=24	=24
4a	trem-
4a}	-ble}
4r	.
{4g	{par
=25	=25
8g	don-
8g	-nez-
2f#	-moi
4f#	d'aus-
=26	=26
4g#	-si
8a#	fran-
8a#	-che-
4b	-ment
8cc#	vous
8cc#	le
=27	=27
2dd	di-
2f#}	-re}
=28	=28
2r	.
{4f#	{a\
4ccn	pen-
=29	=29
4.b	-ser
8f#	qu'un
4f#}	mot,}
{8cc#	{qu'un
8cc#	sou-
=30	=30
4b	-ri-
8b	-re
8f#	de
2f#	vous
=31	=31
4b	est
8f#	de-
8f#	-sor
4.g	mais
8a	ma
=32	=32
2.b}	loi}
{4b	{et
=33	=33
8cc#	qu'il
8cc#	vois
8g#	suf-
8g#	-fi-
4.a	-rait
8b	d'un
=34	=34
4cc#	ges-
8cc#}	-te,}
8r	.
{4cc#	{d'u-
8cc#	-ne
8cc#	pa-
=35	=35
4.dd#	-role
8a#	ou
4b	d'un
4cc#	clin
=36	=36
2dd#	doeil
8ee-}	|}
8r	.
{4ee-	{pour
=37	=37
2.ffn	met-
4dd-	-tre
=38	=38
4ee-	tout
4bn	mon
4.cc	e^tre
8g	en
=39	=39
2.g	deun
4g	de
=40	=40
8g	son
8g	il-
8a	-lu-
8a	-si-
4.b	-on
8b	ce-
=41	4=1
1b	-les
=42	=42
*k[f#c#g#d#]	*
2b}	-te!}
2r	.
=43	=43
1r	.
=44	=44
{4.b	{Mais,
8b	plu-
2ee	-to^t,
=45	=45
4dd#	je
4dd#	ne
4.cc#	vex
8cc#	vous
=46	=46
[2b	voir,
8b]}	|}
8r	.
{8b	{L'a-
8b	-ve-
=47	=47
4.a	-nir
8a	du^t-
4gn	-il
8a	m'e^t-
8b	-re
=48	=48
2cc#	som-
8cc#}	-bre}
8r	.
{8cc#	{Et
8cc#	fe/-
=49	=49
4.b	-cond
8b	en
4a	pei-
8b	-nes
8cc#	sans
=50	=50
2dd#	nom-
8dd#}	-bre,}
8r	.
{8b	{qu'a\
8b	tra-
=51	=51
2ee	-vers
4ddn	un
4ccn	im-
=52	=52
2.ddn	-mense
4ccn	es-
=53	=53
[1b	-poir
=54	=54
2b]}	|}
2r	.
=55	=55
2r	.
{2b	{Plon-
=56	=56
[1b	-ge/
=57	=57
2b]	|
6b	dans
6a	ce
6b	bon-
=58	=58
2.cc#	-heur
4a	su-
=59	=59
2b	-pre^-
[2b	-me
=60	=60
4b]}	|}
4r	.
{4.cc#	{de
8a	me
=61	=61
3b	dire
6b	enco
6b	-re
6a	et
6b	tou-
=62	=62
[4cc#	-jours
8cc#]}	|}
8r	.
{4.cc#	{En
8cc#	de/-
=63	=63
4.ddn	-pit
8a	des
4a	mor-
8g#	-nes
8f#	re-
=64	=64
1e}	-tours}
=65	=65
4r	.
{4e	{que
4a	je
4cc#	vous
=66	=66
2.ee	ai-
4ff#	|
=67	=67
2dd#	|
2cc#	|
=68	=68
[1b	-me.
=69	=69
4b]}	|}
4r	.
{4.b	{que
8b	je
=70	=70
2gn	t'ai
[2a	|
=71	=71
2a]	|
[2b	|
=72	=72
2b]	|
[2ee	|
=73	=73
2.ee]	|
4e	|
=74	=74
[1e	-me!
=75	=75
1e]}	|}
==	==
*-	*-
